src/static/logos/engine-yard.svg

<?xml version="1.0" encoding="UTF-8" standalone="no" ?>
<svg width="253px" height="187px" viewBox="0 0 253 187" version="1.1" xmlns="http://www.w3.org/2000/svg" xmlns:xlink="http://www.w3.org/1999/xlink" preserveAspectRatio="xMidYMid">
    <g fill="#E92429">
        <path d="M157.333333,35.2 L174.933333,35.2 L186.666667,46.9333333 L186.666667,23.4666667 C186.666667,17.0666667 181.333333,11.7333333 174.933333,11.7333333 L173.866667,11.7333333 C171.2,4.8 165.333333,3.01980663e-13 157.333333,3.01980663e-13 C147.733333,3.01980663e-13 139.733333,8 139.733333,17.6 C140.266667,27.2 147.733333,35.2 157.333333,35.2 L157.333333,35.2 Z"></path>
        <path d="M169.066667,139.733333 L233.6,139.733333 L228.8,128 L11.7333333,128 L11.7333333,116.266667 L224.533333,116.266667 L219.733333,104.533333 L12.2666667,104.533333 L12.2666667,92.8 L215.466667,92.8 L210.666667,81.0666667 L187.2,81.0666667 L187.2,69.3333333 L198.933333,57.6 L163.733333,57.6 L175.466667,69.3333333 L175.466667,81.0666667 L91.2,81.0666667 L86.4,69.3333333 L98.1333333,69.3333333 L93.3333333,57.6 L0,57.6 L0,156.8 C0,172.8 13.3333333,186.133333 29.3333333,186.133333 C43.2,186.133333 55.4666667,174.4 58.1333333,162.666667 L59.2,162.666667 C61.8666667,174.4 73.6,186.133333 88,186.133333 C101.866667,186.133333 114.133333,174.4 116.8,162.666667 L117.866667,162.666667 C120.533333,174.4 132.266667,186.133333 146.666667,186.133333 C162.666667,186.133333 176,172.8 176,156.8 C174.933333,150.933333 172.8,145.066667 169.066667,139.733333 L169.066667,139.733333 Z M74.6666667,69.8666667 L79.4666667,81.6 L51.7333333,81.6 L46.9333333,69.8666667 L74.6666667,69.8666667 L74.6666667,69.8666667 Z M11.7333333,69.8666667 L35.2,69.8666667 L40,81.6 L11.7333333,81.6 L11.7333333,69.8666667 L11.7333333,69.8666667 Z M29.3333333,163.2 L45.8666667,163.2 C43.7333333,170.133333 37.3333333,174.933333 29.3333333,174.933333 C19.7333333,174.933333 11.7333333,166.933333 11.7333333,157.333333 C11.7333333,147.733333 19.7333333,139.733333 29.3333333,139.733333 C36.8,139.733333 43.2,144.533333 45.8666667,151.466667 L29.3333333,151.466667 C26.1333333,151.466667 23.4666667,154.133333 23.4666667,157.333333 C23.4666667,160.533333 26.1333333,163.2 29.3333333,163.2 L29.3333333,163.2 Z M87.4666667,174.933333 C80,174.933333 73.6,170.133333 70.9333333,163.2 L104,163.2 C101.333333,170.133333 94.9333333,174.933333 87.4666667,174.933333 L87.4666667,174.933333 Z M70.9333333,151.466667 C73.6,144.533333 80,139.733333 87.4666667,139.733333 C94.9333333,139.733333 101.333333,144.533333 104,151.466667 L70.9333333,151.466667 L70.9333333,151.466667 Z M145.6,174.933333 C138.133333,174.933333 131.733333,170.133333 129.066667,163.2 L145.6,163.2 C148.8,163.2 151.466667,160.533333 151.466667,157.333333 C151.466667,154.133333 148.8,151.466667 145.6,151.466667 L129.066667,151.466667 C131.733333,144.533333 138.133333,139.733333 145.6,139.733333 C155.2,139.733333 163.2,147.733333 163.2,157.333333 C163.2,166.933333 155.733333,174.933333 145.6,174.933333 L145.6,174.933333 Z"></path>
        <path d="M237.866667,151.466667 L186.666667,151.466667 L186.666667,157.333333 C186.666667,168.533333 181.866667,179.2 174.4,186.666667 L252.266667,186.666667 L237.866667,151.466667 L237.866667,151.466667 Z"></path>
    </g>
</svg>

<svg width="253" height="187" xmlns="http://www.w3.org/2000/svg" preserveAspectRatio="xMidYMid"><g fill="#E92429"><path d="M157.333 35.2h17.6l11.734 11.733V23.467c0-6.4-5.334-11.734-11.734-11.734h-1.066C171.2 4.8 165.333 0 157.333 0c-9.6 0-17.6 8-17.6 17.6.534 9.6 8 17.6 17.6 17.6zm11.734 104.533H233.6L228.8 128H11.733v-11.733h212.8l-4.8-11.734H12.267V92.8h203.2l-4.8-11.733H187.2V69.333L198.933 57.6h-35.2l11.734 11.733v11.734H91.2l-4.8-11.734h11.733l-4.8-11.733H0v99.2c0 16 13.333 29.333 29.333 29.333 13.867 0 26.134-11.733 28.8-23.466H59.2c2.667 11.733 14.4 23.466 28.8 23.466 13.867 0 26.133-11.733 28.8-23.466h1.067c2.666 11.733 14.4 23.466 28.8 23.466 16 0 29.333-13.333 29.333-29.333-1.067-5.867-3.2-11.733-6.933-17.067zm-94.4-69.866l4.8 11.733H51.733l-4.8-11.733h27.734zm-62.934 0H35.2L40 81.6H11.733V69.867zm17.6 93.333h16.534c-2.134 6.933-8.534 11.733-16.534 11.733-9.6 0-17.6-8-17.6-17.6 0-9.6 8-17.6 17.6-17.6 7.467 0 13.867 4.8 16.534 11.734H29.333c-3.2 0-5.866 2.666-5.866 5.866 0 3.2 2.666 5.867 5.866 5.867zm58.134 11.733c-7.467 0-13.867-4.8-16.534-11.733H104c-2.667 6.933-9.067 11.733-16.533 11.733zm-16.534-23.466c2.667-6.934 9.067-11.734 16.534-11.734 7.466 0 13.866 4.8 16.533 11.734H70.933zm74.667 23.466c-7.467 0-13.867-4.8-16.533-11.733H145.6c3.2 0 5.867-2.667 5.867-5.867s-2.667-5.866-5.867-5.866h-16.533c2.666-6.934 9.066-11.734 16.533-11.734 9.6 0 17.6 8 17.6 17.6 0 9.6-7.467 17.6-17.6 17.6z"/><path d="M237.867 151.467h-51.2v5.866c0 11.2-4.8 21.867-12.267 29.334h77.867l-14.4-35.2z"/></g></svg>
